style-guide/assets/xd-icons-user-avatar-tiny.svg

<?xml version="1.0" encoding="UTF-8"?>
<svg width="12px" height="12px" viewBox="0 0 12 12" version="1.1" xmlns="http://www.w3.org/2000/svg" xmlns:xlink="http://www.w3.org/1999/xlink">
    <!-- Generator: Sketch 51.3 (57544) - http://www.bohemiancoding.com/sketch -->
    <title>user avatar</title>
    <desc>Created with Sketch.</desc>
    <defs></defs>
    <g id="user-avatar" stroke="none" stroke-width="1" fill="none" fill-rule="evenodd">
        <path d="M9.667,7.606 C8.74,6.599 7.42,6 6,6 C4.581,6 3.261,6.6 2.334,7.606 C2.116,7.105 2,6.56 2,6 C2,3.793 3.795,2 6,2 C8.206,2 10,3.793 10,6 C10,6.56 9.885,7.106 9.667,7.606 M3.604,9.205 C4.159,8.457 5.042,8 6,8 C6.959,8 7.842,8.457 8.397,9.205 C7.018,10.238 4.983,10.238 3.604,9.205 M6,0 C2.692,0 0,2.691 0,6 C0,7.524 0.57,8.975 1.606,10.088 C1.608,10.09 1.609,10.092 1.611,10.094 C2.748,11.305 4.348,12 6,12 L6.029,12 C7.672,11.991 9.26,11.297 10.39,10.094 C10.391,10.092 10.393,10.091 10.394,10.09 C11.43,8.977 12,7.526 12,6 C12,2.691 9.309,0 6,0 M6.7105,3.2906 C6.6605,3.2506 6.6105,3.1996 6.5605,3.1706 C6.5005,3.1306 6.4405,3.1006 6.3805,3.0806 C6.3205,3.0506 6.2605,3.0296 6.2005,3.0196 C5.8705,2.9496 5.5205,3.0616 5.2905,3.2906 C5.2005,3.3906 5.1305,3.5006 5.0805,3.6196 C5.0305,3.7406 5.0005,3.8696 5.0005,4.0006 C5.0005,4.2606 5.1105,4.5196 5.2905,4.7106 C5.4805,4.8906 5.7405,5.0006 6.0005,5.0006 C6.0705,5.0006 6.1305,4.9906 6.2005,4.9806 C6.2605,4.9706 6.3205,4.9496 6.3805,4.9206 C6.4405,4.9006 6.5005,4.8696 6.5605,4.8306 C6.6105,4.7906 6.6605,4.7506 6.7105,4.7106 C6.8905,4.5196 7.0005,4.2606 7.0005,4.0006 C7.0005,3.8696 6.9705,3.7406 6.9205,3.6196 C6.8705,3.5006 6.8005,3.3906 6.7105,3.2906" id="Fill-1" fill="#000000"></path>
    </g>
</svg>

<svg viewBox="0 0 12 12" xmlns="http://www.w3.org/2000/svg">
  <path d="M9.667 7.606A4.979 4.979 0 0 0 6 6c-1.419 0-2.739.6-3.666 1.606A4.004 4.004 0 0 1 6 2a4.003 4.003 0 0 1 3.667 5.606M3.604 9.205a2.983 2.983 0 0 1 4.793 0c-1.379 1.033-3.414 1.033-4.793 0M6 0C2.692 0 0 2.691 0 6c0 1.524.57 2.975 1.606 4.088l.005.006A6.047 6.047 0 0 0 6 12h.029a6.054 6.054 0 0 0 4.361-1.906l.004-.004A5.98 5.98 0 0 0 12 6c0-3.309-2.691-6-6-6m.71 3.29c-.05-.04-.1-.09-.15-.12a.757.757 0 0 0-.18-.09.639.639 0 0 0-.18-.06c-.33-.07-.68.042-.91.27-.09.1-.16.21-.21.33A1 1 0 0 0 5 4c0 .26.11.52.29.71.19.18.45.29.71.29.07 0 .13-.01.2-.02.06-.01.12-.03.18-.06.06-.02.12-.05.18-.09l.15-.12C6.89 4.52 7 4.26 7 4a1 1 0 0 0-.08-.38 1.164 1.164 0 0 0-.21-.33"/>
</svg>
